X:1
T:Title
%%score { 1 | 2 }
L:1/8
M:3/4
K:Eb
V:1 treble nm="Grand Piano"
V:2 bass 
V:1
 z2 z2[Q:1/4=100] [EG]>[FA] | [GB]2 [Ge]2 [Bd][Ac] | [GB]2 G2 cc | B2 G2 [FA][EG] |[M:2/4] [DF]4 | %5
[M:1/4] [EG]>[FA] |[M:3/4] [GB]2 [Ge]2 [Bd][DAc] | [EGB]2 [B,EG]2 [G,B,E][A,B,F] | %8
 [B,EG]2 [B,EB]2 [B,EG][A,DF] |[M:2/4] [G,E]4 |[M:1/4] [DF]>[EG] |[M:3/4] [FA]2 [FA]2 [DB][FA] | %12
 [FA]2 G2 cd | e2 e2 dd |[M:2/4] [Ec]4 |[M:1/4] [FB]>[FA] |[M:3/4] [EG]2 [GB]2 [Ac][Ad] | %17
 [Ge]2 G2 cc | B2 G2 [DG][DF] |[M:2/4] E4 |] %20
V:2
 z2 z2 [E,B,]>[E,B,] | [E,E]2 [E,B,]2 [E,C][E,D] | [E,E]2 [E,B,E]2 [A,E][A,E] | %3
 [G,B,E]2 [E,B,E]2 [D,B,][E,B,] |[M:2/4] [B,,B,]4 |[M:1/4] [E,B,]>[E,B,] | %6
[M:3/4] [E,E]2 [E,B,]2 [E,C]E, | E,2 E,2 E,E, | E,2 G,,2 B,,B,, |[M:2/4] E,4 | %10
[M:1/4] [B,,B,]>[B,,B,] |[M:3/4] [B,,B,]2 [B,,B,]2 [B,,F,][D,B,] | %12
 [E,B,]2 [E,B,E]2[K:treble] [A,CE][A,=B,F] | [G,CG]2 [G,CG]2 [G,=B,F][G,B,F] | %14
[M:2/4][K:bass] [C,C]4 |[M:1/4] [D,F,]>[D,B,] |[M:3/4] [E,B,]2 [E,E]2 [A,E][F,B,] | %17
 [E,B,]2 [E,B,E]2 [E,A,E][E,A,E] | [E,G,E]2 [E,B,E]2 [B,,B,][B,,A,] |[M:2/4] [E,G,]4 |] %20

